img/search-icon.svg

<svg width="16" height="16" fill="none" xmlns="http://www.w3.org/2000/svg"><path fill-rule="evenodd" clip-rule="evenodd" d="M1.91286 7.24625c0-2.94552 2.38782-5.33333 5.33334-5.33333 2.9455 0 5.3333 2.38781 5.3333 5.33333 0 1.43922-.57 2.74529-1.4967 3.70475a.65528.65528 0 0 0-.0705.0614.65528.65528 0 0 0-.0614.0705c-.95944.9266-2.2655 1.4967-3.7047 1.4967-2.94552 0-5.33334-2.3878-5.33334-5.33335Zm9.55244 5.16195c-1.1492.9405-2.61827 1.5047-4.2191 1.5047-3.6819 0-6.66667-2.9848-6.66667-6.66665 0-3.6819 2.98477-6.66667 6.66667-6.66667 3.6819 0 6.6667 2.98477 6.6667 6.66667 0 1.60086-.5643 3.06995-1.5048 4.21915l2.8095 2.8095c.2603.2603.2603.6824 0 .9428-.2604.2603-.6825.2603-.9428 0l-2.8095-2.8095Z" fill="#2D3440"/></svg>

<svg width="16" height="16" viewBox="0 0 16 16" fill="none" xmlns="http://www.w3.org/2000/svg">
<path fill-rule="evenodd" clip-rule="evenodd" d="M1.91286 7.24625C1.91286 4.30073 4.30068 1.91292 7.2462 1.91292C10.1917 1.91292 12.5795 4.30073 12.5795 7.24625C12.5795 8.68547 12.0095 9.99154 11.0828 10.951C11.0582 10.9695 11.0346 10.99 11.0123 11.0124C10.9899 11.0347 10.9694 11.0583 10.9509 11.0829C9.99146 12.0095 8.6854 12.5796 7.2462 12.5796C4.30068 12.5796 1.91286 10.1918 1.91286 7.24625ZM11.4653 12.4082C10.3161 13.3487 8.84703 13.9129 7.2462 13.9129C3.5643 13.9129 0.579529 10.9281 0.579529 7.24625C0.579529 3.56435 3.5643 0.579582 7.2462 0.579582C10.9281 0.579582 13.9129 3.56435 13.9129 7.24625C13.9129 8.84711 13.3486 10.3162 12.4081 11.4654L15.2176 14.2749C15.4779 14.5352 15.4779 14.9573 15.2176 15.2177C14.9572 15.478 14.5351 15.478 14.2748 15.2177L11.4653 12.4082Z" fill="#2D3440"/>
</svg>
